src/assets/dolyami.svg

<svg xmlns="http://www.w3.org/2000/svg" width="126" height="18" viewBox="0 0 126 18" fill="none" class="abjYTg--gW"><path d="M22.3633 0H19.36V15.23H22.3633V0Z" fill="black"></path><path d="M15.91 0.852219H12.9066V16.0819H15.91V0.852219Z" fill="black"></path><path d="M9.45667 1.80363H6.45332V17.0362H9.45667V1.80363Z" fill="black"></path><path d="M3.00334 2.76562H0L1.14441e-05 18H3.00335L3.00334 2.76562Z" fill="black"></path><path d="M101.687 8.11427L96.851 2.73765H94.0239V15.1864H96.9756V7.24385L101.391 11.9495H101.936L106.275 7.24385V15.1864H109.227V2.73765H106.4L101.687 8.11427Z" fill="black"></path><path d="M123.289 2.73765L115.973 10.8289V2.73765H113.021V15.1864H115.726L123.042 7.09516V15.1864H125.993V2.73765H123.289Z" fill="black"></path><path d="M78.1253 7.29281C78.1253 9.27482 79.2092 10.8361 80.8729 11.4908L77.7532 15.1864H81.366L84.2039 11.8244H87.2748V15.1864H90.2265V2.73765H82.7118C79.91 2.73765 78.1253 4.65437 78.1253 7.29281ZM87.2766 5.47945V9.16058H83.2592C81.9188 9.16058 81.1998 8.41347 81.1998 7.3182C81.1998 6.22293 81.9441 5.47583 83.2592 5.47583L87.2766 5.47945Z" fill="black"></path><path d="M64.4089 5.22739C64.2283 9.50874 63.3251 12.2723 61.5566 12.2723H61.114V15.2607L61.5855 15.2861C65.1315 15.4838 67.0915 12.372 67.413 5.57556H72.0772V15.1864H75.0235V2.73765H64.5083L64.4089 5.22739Z" fill="black"></path><path d="M53.2978 2.56372C49.3056 2.56372 46.4333 5.32728 46.4333 8.96126C46.4333 12.7204 49.5585 15.386 53.2978 15.386C57.1924 15.386 60.2182 12.5717 60.2182 8.96126C60.2182 5.35086 57.1924 2.56372 53.2978 2.56372ZM53.2978 12.3976C51.0415 12.3976 49.5043 10.9288 49.5043 8.96126C49.5043 6.9448 51.0433 5.51587 53.2978 5.51587C55.5522 5.51587 57.1418 7.01008 57.1418 8.96126C57.1418 10.9124 55.5305 12.3976 53.2978 12.3976Z" fill="black"></path><path d="M43.3029 2.76113H32.8852L32.7859 5.25088C32.6378 8.83771 31.702 12.2486 29.9335 12.2976L29.1152 12.323V18.0001L32.0922 17.9941V15.1881H42.434V17.9941H45.4363V12.2976H43.3029V2.76113ZM40.3512 12.2976H34.0522C35.118 10.6801 35.6888 8.33903 35.7882 5.60086H40.3512V12.2976Z" fill="black"></path></svg>

<svg xmlns="http://www.w3.org/2000/svg" width="126" height="18" fill="none" class="abjYTg--gW"><path fill="#000" d="M22.363 0H19.36v15.23h3.003zM15.91.852h-3.003v15.23h3.003zm-6.453.952H6.453v15.232h3.004zm-6.454.962H0V18h3.003zm98.684 5.348-4.836-5.376h-2.827v12.448h2.952V7.244l4.415 4.706h.545l4.339-4.706v7.942h2.952V2.738H106.4zm21.602-5.376-7.316 8.09v-8.09h-2.952v12.448h2.705l7.316-8.09v8.09h2.951V2.738zM78.125 7.293c0 1.982 1.084 3.543 2.748 4.198l-3.12 3.695h3.613l2.838-3.362h3.07v3.362h2.953V2.738h-7.515c-2.802 0-4.587 1.916-4.587 4.555m9.152-1.814v3.682h-4.018c-1.34 0-2.06-.748-2.06-1.843s.745-1.842 2.06-1.842zm-22.868-.252c-.18 4.282-1.084 7.045-2.852 7.045h-.443v2.989l.472.025c3.546.198 5.505-2.914 5.827-9.71h4.664v9.61h2.947V2.738H64.507zM53.298 2.564c-3.992 0-6.865 2.763-6.865 6.397 0 3.76 3.126 6.425 6.865 6.425 3.894 0 6.92-2.814 6.92-6.425s-3.026-6.397-6.92-6.397m0 9.834c-2.257 0-3.794-1.47-3.794-3.437 0-2.016 1.54-3.445 3.794-3.445s3.844 1.494 3.844 3.445-1.611 3.437-3.844 3.437m-9.995-9.637H32.885l-.1 2.49c-.147 3.587-1.083 6.998-2.851 7.047l-.819.025V18l2.977-.006v-2.806h10.342v2.806h3.002v-5.696h-2.133zm-2.952 9.537h-6.299c1.066-1.618 1.637-3.959 1.736-6.697h4.563z"/></svg>
